public/img/svgs/icons/video-play.svg

<svg width="64" height="56" viewBox="0 0 64 56" fill="none" xmlns="http://www.w3.org/2000/svg">
<path fill-rule="evenodd" clip-rule="evenodd" d="M64 27.6V37.857C64 49.6055 61.9403 52.7753 54.9703 54.6405C52.4353 55.2 39.921 55.2 31.9995 55.2C24.079 55.2 11.5638 55.2 9.02975 54.6405C2.05878 52.7753 0 49.6055 0 37.857V27.6V17.343C0 5.59452 2.05878 2.42466 9.02975 0.559452C11.5638 0 24.079 0 31.9995 0C39.921 0 52.4353 0 54.9703 0.559452C61.9403 2.42466 64 5.59452 64 17.343V27.6Z" fill="black" fill-opacity="0.6"/>
<path fill-rule="evenodd" clip-rule="evenodd" d="M23.0005 17.2498V37.9852L40.2822 27.7073L23.0005 17.2498Z" fill="white"/>
<path fill-rule="evenodd" clip-rule="evenodd" d="M38.4135 28.9701L40.2827 27.7075L23 17.25L38.4135 28.9701Z" fill="#CCCCCC"/>
</svg>

<svg width="64" height="56" fill="none" xmlns="http://www.w3.org/2000/svg"><path fill-rule="evenodd" clip-rule="evenodd" d="M64 27.6v10.257c0 11.748-2.06 14.918-9.03 16.784-2.535.559-15.049.559-22.97.559-7.921 0-20.436 0-22.97-.56C2.059 52.776 0 49.606 0 37.858V17.343C0 5.595 2.059 2.425 9.03.559 11.564 0 24.079 0 32 0c7.921 0 20.435 0 22.97.56C61.94 2.424 64 5.594 64 17.342V27.6z" fill="#000" fill-opacity=".6"/><path fill-rule="evenodd" clip-rule="evenodd" d="M23 17.25v20.735l17.282-10.278L23.001 17.25z" fill="#fff"/><path fill-rule="evenodd" clip-rule="evenodd" d="M38.413 28.97l1.87-1.262L23 17.25l15.413 11.72z" fill="#CCC"/></svg>
